X:1
T:Concert G major
T:Largo cantabile
T:Concert G maj - largo cantabile
T:Antonio Vivaldi
T:op 7 no 2 rv 299
%%score 1 { 2 | 3 }
L:1/8
Q:1/4=60
M:3/4
K:G
V:1 treble nm="Violin" snm="Vln."
V:2 treble nm="Piano" snm="Pno."
V:3 treble 
V:1
!p!"^Largo" b2 (e>b) (g>e) | (f>e) f2 z3/2 uB/ | a2 (B>a) (g>f) | (g>f) (e>g) (a>b) | %4
 (f>e) (f>b) (f>d) | (e>d) (e>a) (e>c) |!mf! (d>c) (d>g) (d>B) | (c>B) (c>f) (a>c) | %8
 (B>A) B2 z3/2 uB/ | e>g (b>g) (e>d) | (!wedge!^c>B) c2 z3/2 ue/ | (f>A) (c>A) (F>E) | %12
 (D>c) (d>B) (g>!tenuto!g) |!f! g3 (e f)^c | (ud>B) (T^A3 B) | B2 z3/2 uB/ (^d>f) | %16
 (a>B) (^d>f) (b>a) | (g>f) e2 z3/2 ve/ | (c>A) (c>e) (a>!tenuto!a) | a3 (b g>f) | %20
 (gf/e/) (T^d3 e) | eb/a/ gf/e/!<(! =f^g!<)! |!f! a3 (b g>f) | %23
 !tenuto!g!tenuto!f/!tenuto!e/ ((T^d3 e)) | e6 |] %25
V:2
 [GB]4 [GB]2 | [FB]6 | [AB^d]4 [ABd]2 | [GBe]6 | [FB]6 | [EA]6 | [DG]6 | [CFc]6 | [DGB]6 | [EBe]6 | %10
 [EA^c]6 | [CFc]6 | [DFB]4 [GB]2 | [G^c]4 [Fc]2 | [Fd][GB] ^A4 | [^DFB]6 | [FA^d]6 | [GBe-]6 | %18
 [Ace]6 | [Af]4 [Ge]2 | [Gce]2 [F^d]4 | [GBe]3 [GBe] [c=f][d^g] | [Aa]2 [Af]2 [Ge]2 | %23
 [Ge]2 [F^d]4 | [^GBe]6 |] %25
V:3
 E2 E2 E2 | ^D2 D2 D2 | B,2 B,2 B,2 | E2 E2 E2 | E2 D2 D2 | D2 C2 C2 | C2 B,2 B,2 | B,2 A,2 A,2 | %8
 G,2 G,2 G,2 | G,2 G,2 G,2 | A,2 A,2 A,2 | A,2 A,2 A,2 | B,2 B,2 E2 | [^A,E]4 [A,E]2 | %14
 [B,D]E F2 F2 | B,2 B,2 B,2 | B,2 B,2 B,2 | E2 E2 E2 | A,2 A,2 A,2 |[K:bass] [^D,A,C]4 [E,G,]2 | %20
 [A,C]2 B,4 | [E,B,]3 [E,B,] A,B, | C2 CB, B,2 | C2 B,4 | B,6 |] %25

